src/svgs/nim.svg

<?xml version="1.0" encoding="UTF-8" standalone="no"?>
<svg
   viewBox="0 0 32 32"
   version="1.1"
   id="svg835"
   xmlns="http://www.w3.org/2000/svg"
   xmlns:svg="http://www.w3.org/2000/svg">
  <defs
     id="defs839" />
  <path
     id="path829"
     style="fill-rule:evenodd;stroke-linecap:round;stroke-linejoin:round"
     d="M 15.931641 10 L 14.560547 11.068359 C 13.848547 11.045359 12.451313 11.205469 11.695312 11.480469 C 10.998312 11.038469 10.384766 10.550781 10.384766 10.550781 L 9.53125 11.980469 C 9.04325 12.240469 8.5531875 12.533922 8.1171875 12.919922 L 7 12.464844 C 7.673 13.820844 8.1214688 15.176094 9.3554688 15.996094 C 11.315469 12.902094 20.419922 13.190516 22.419922 15.978516 C 23.712922 15.305516 24.216609 13.858625 24.724609 12.515625 C 24.324609 12.649625 23.923344 12.7905 23.527344 12.9375 C 23.260344 12.6465 22.630484 12.196469 22.271484 11.980469 C 21.931484 11.357469 21.435547 10.517578 21.435547 10.517578 C 21.435547 10.517578 20.849922 10.953688 20.169922 11.429688 C 19.251922 11.259688 18.141031 11.054469 17.207031 11.105469 C 16.572031 10.582469 15.933594 10 15.933594 10 L 15.931641 10 z M 24.148438 15.326172 C 23.346438 16.513172 22.042281 17.333344 21.238281 17.777344 C 20.668281 18.090344 19.351562 18.279297 19.351562 18.279297 L 15.894531 16.488281 L 12.416016 18.244141 C 12.416016 18.244141 11.115344 18.034766 10.527344 17.759766 C 9.3393437 17.123766 8.5402656 16.377562 7.6972656 15.351562 L 9.3125 19.263672 C 12.1195 22.966672 19.287109 23.221938 22.412109 19.335938 L 24.148438 15.326172 z " />
</svg>

<svg viewBox="0 0 32 32" xmlns="http://www.w3.org/2000/svg"><g fill="none" fill-rule="evenodd" stroke-linecap="round" stroke-linejoin="round"><path d="M15.932 10l-1.371 1.069c-.712-.023-2.11.137-2.866.412-.697-.442-1.31-.93-1.31-.93l-.853 1.43c-.488.26-.979.552-1.415.938L7 12.464c.673 1.356 1.122 2.713 2.356 3.533 1.96-3.094 11.064-2.806 13.064-.018 1.293-.673 1.796-2.12 2.304-3.463-.4.134-.8.274-1.196.421-.267-.291-.898-.74-1.257-.956-.34-.623-.835-1.464-.835-1.464s-.586.436-1.266.912c-.918-.17-2.029-.375-2.963-.324-.635-.523-1.274-1.105-1.274-1.105z" fill="#F3D400"/><path d="M7.696 15.348l1.616 3.915c2.807 3.703 9.975 3.958 13.1.072l1.737-4.008c-.802 1.187-2.106 2.007-2.91 2.451-.57.313-1.888.502-1.888.502l-3.456-1.792-3.479 1.756s-1.3-.209-1.888-.484c-1.188-.636-1.987-1.383-2.83-2.409l-.002-.002z" fill="#FFE953"/></g></svg>
